(G-CODE GENERATED BY FLATCAM v8.992 - www.flatcam.org - Version Date: 2020/05/03)

(Name: Agujeros)
(Type: G-code from Excellon)
(Units: MM)

(Created on Wednesday, 10 June 2026 at 12:08)

(This preprocessor is the default preprocessor used by FlatCAM.)
(It is made to work with MACH3 compatible motion controllers.)


(TOOLS DIAMETER: )
(Tool: 1 -> Dia: 0.29972)
(Tool: 2 -> Dia: 1.0007599999999999)
(Tool: 3 -> Dia: 1.19888)
(Tool: 4 -> Dia: 1.5189199999999998)

(FEEDRATE Z: )
(Tool: 1 -> Feedrate: 120.0)
(Tool: 2 -> Feedrate: 120.0)
(Tool: 3 -> Feedrate: 120.0)
(Tool: 4 -> Feedrate: 120.0)

(FEEDRATE RAPIDS: )
(Tool: 1 -> Feedrate Rapids: 1500)
(Tool: 2 -> Feedrate Rapids: 1500)
(Tool: 3 -> Feedrate Rapids: 1500)
(Tool: 4 -> Feedrate Rapids: 1500)

(Z_CUT: )
(Tool: 1 -> Z_Cut: -2.4)
(Tool: 2 -> Z_Cut: -2.4)
(Tool: 3 -> Z_Cut: -2.4)
(Tool: 4 -> Z_Cut: -2.4)

(Tools Offset: )
(Tool: 1 -> Offset Z: -0.0)
(Tool: 2 -> Offset Z: -0.0)
(Tool: 3 -> Offset Z: -0.0)
(Tool: 4 -> Offset Z: -0.0)

(Z_MOVE: )
(Tool: 1 -> Z_Move: 2.0)
(Tool: 2 -> Z_Move: 2.0)
(Tool: 3 -> Z_Move: 2.0)
(Tool: 4 -> Z_Move: 2.0)

(Z Start: None mm)
(Z End: 2.0 mm)
(Steps per circle: 64)
(Preprocessor Excellon: default)

(X range:    4.8496 ...   42.1495  mm)
(Y range:    4.8498 ...   50.1507  mm)

(Spindle Speed: 2500.0 RPM)
G21
G90
G94



G00 Z2.0000

G01 F120.00
M03 S2500
G00 X4.9994 Y50.0008
G01 Z-2.4000
G01 Z0
G00 Z2.0000
G00 X41.9996 Y50.0008
G01 Z-2.4000
G01 Z0
G00 Z2.0000
G00 X41.9996 Y4.9996
G01 Z-2.4000
G01 Z0
G00 Z2.0000
G00 X4.9994 Y4.9996
G01 Z-2.4000
G01 Z0
G00 Z2.0000
G01 F120.00
M03 S2500
G00 X17.2600 Y15.5000
G01 Z-2.4000
G01 Z0
G00 Z2.0000
G00 X19.8000 Y15.5000
G01 Z-2.4000
G01 Z0
G00 Z2.0000
G00 X22.3400 Y15.5000
G01 Z-2.4000
G01 Z0
G00 Z2.0000
G00 X24.8800 Y15.5000
G01 Z-2.4000
G01 Z0
G00 Z2.0000
G00 X27.4200 Y15.5000
G01 Z-2.4000
G01 Z0
G00 Z2.0000
G00 X29.9600 Y15.5000
G01 Z-2.4000
G01 Z0
G00 Z2.0000
G00 X27.4200 Y35.8200
G01 Z-2.4000
G01 Z0
G00 Z2.0000
G00 X24.8800 Y35.8200
G01 Z-2.4000
G01 Z0
G00 Z2.0000
G00 X22.3400 Y35.8200
G01 Z-2.4000
G01 Z0
G00 Z2.0000
G00 X19.8000 Y35.8200
G01 Z-2.4000
G01 Z0
G00 Z2.0000
G01 F120.00
M03 S2500
G00 X17.2600 Y23.1200
G01 Z-2.4000
G01 Z0
G00 Z2.0000
G00 X24.8800 Y23.1200
G01 Z-2.4000
G01 Z0
G00 Z2.0000
G01 F120.00
M03 S2500
G00 X15.9900 Y47.8850
G01 Z-2.4000
G01 Z0
G00 Z2.0000
G00 X21.0700 Y47.8850
G01 Z-2.4000
G01 Z0
G00 Z2.0000
G00 X26.1500 Y47.8850
G01 Z-2.4000
G01 Z0
G00 Z2.0000
G00 X31.2300 Y47.8850
G01 Z-2.4000
G01 Z0
G00 Z2.0000
M05
G00 Z2.00

