(G-CODE GENERATED BY FLATCAM v8.992 - www.flatcam.org - Version Date: 2020/05/03)

(Name: Corte)
(Type: G-code from Geometry)
(Units: MM)

(Created on Wednesday, 10 June 2026 at 12:04)

(This preprocessor is the default preprocessor used by FlatCAM.)
(It is made to work with MACH3 compatible motion controllers.)

(TOOL DIAMETER: 2.0 mm)
(Feedrate_XY: 25.0 mm/min)
(Feedrate_Z: 25.0 mm/min)
(Feedrate rapids 1500.0 mm/min)

(Z_Cut: -2.5 mm)
(Z_Move: 1.0 mm)
(Z Start: None mm)
(Z End: 15.0 mm)
(Steps per circle: 64)
(Preprocessor Geometry: default)

(X range:   -1.1250 ...   48.1250  mm)
(Y range:   -1.1250 ...   56.1250  mm)

(Spindle Speed: 2500 RPM)
G21
G90
G94



G01 F25.00
G00 Z1.0000

M03 S2500
G00 X-1.1250 Y25.6000
G01 F25.00
G01 Z-2.5000
G01 F25.00
G01 X-1.1250 Y-0.0250
G01 X-1.1197 Y-0.1328
G01 X-1.1039 Y-0.2396
G01 X-1.0776 Y-0.3443
G01 X-1.0413 Y-0.4460
G01 X-0.9951 Y-0.5435
G01 X-0.9396 Y-0.6361
G01 X-0.8753 Y-0.7228
G01 X-0.8028 Y-0.8028
G01 X-0.7228 Y-0.8753
G01 X-0.6361 Y-0.9396
G01 X-0.5435 Y-0.9951
G01 X-0.4460 Y-1.0413
G01 X-0.3443 Y-1.0776
G01 X-0.2396 Y-1.1039
G01 X-0.1328 Y-1.1197
G01 X-0.0250 Y-1.1250
G01 X47.0250 Y-1.1250
G00 Z1.0000
G00 X47.0250 Y-1.1250
G01 F25.00
G01 Z-2.5000
G01 F25.00
G01 X47.1328 Y-1.1197
G01 X47.2396 Y-1.1039
G01 X47.3443 Y-1.0776
G01 X47.4460 Y-1.0413
G01 X47.5435 Y-0.9951
G01 X47.6361 Y-0.9396
G01 X47.7228 Y-0.8753
G01 X47.8028 Y-0.8028
G01 X47.8753 Y-0.7228
G01 X47.9396 Y-0.6361
G01 X47.9951 Y-0.5435
G01 X48.0413 Y-0.4460
G01 X48.0776 Y-0.3443
G01 X48.1039 Y-0.2396
G01 X48.1197 Y-0.1328
G01 X48.1250 Y-0.0250
G01 X48.1250 Y25.6000
G00 Z1.0000
G00 X48.1250 Y29.6000
G01 F25.00
G01 Z-2.5000
G01 F25.00
G01 X48.1250 Y55.0250
G01 X48.1197 Y55.1328
G01 X48.1039 Y55.2396
G01 X48.0776 Y55.3443
G01 X48.0413 Y55.4460
G01 X47.9951 Y55.5435
G01 X47.9396 Y55.6361
G01 X47.8753 Y55.7228
G01 X47.8028 Y55.8028
G01 X47.7228 Y55.8753
G01 X47.6361 Y55.9396
G01 X47.5435 Y55.9951
G01 X47.4460 Y56.0413
G01 X47.3443 Y56.0776
G01 X47.2396 Y56.1039
G01 X47.1328 Y56.1197
G01 X47.0250 Y56.1250
G01 X-0.0250 Y56.1250
G01 X-0.1328 Y56.1197
G01 X-0.2396 Y56.1039
G01 X-0.3443 Y56.0776
G01 X-0.4460 Y56.0413
G01 X-0.5435 Y55.9951
G01 X-0.6361 Y55.9396
G01 X-0.7228 Y55.8753
G01 X-0.8028 Y55.8028
G01 X-0.8753 Y55.7228
G01 X-0.9396 Y55.6361
G01 X-0.9951 Y55.5435
G01 X-1.0413 Y55.4460
G01 X-1.0776 Y55.3443
G01 X-1.1039 Y55.2396
G01 X-1.1197 Y55.1328
G01 X-1.1250 Y55.0250
G01 X-1.1250 Y29.6000
G00 Z1.0000
M05
G00 Z1.0000
G00 Z15.00

