(G-CODE GENERATED BY FLATCAM v8.992 - www.flatcam.org - Version Date: 2020/05/03)

(Name: Placa_cobre)
(Type: G-code from Geometry)
(Units: MM)

(Created on Wednesday, 10 June 2026 at 12:07)

(This preprocessor is the default preprocessor used by FlatCAM.)
(It is made to work with MACH3 compatible motion controllers.)

(TOOL DIAMETER: 0.1353 mm)
(Feedrate_XY: 75.0 mm/min)
(Feedrate_Z: 25.0 mm/min)
(Feedrate rapids 1500.0 mm/min)

(Z_Cut: -0.1 mm)
(Z_Move: 1.0 mm)
(Z Start: None mm)
(Z End: 35.0 mm)
(Steps per circle: 64)
(Preprocessor Geometry: default)

(X range:    1.2174 ...   45.6842  mm)
(Y range:    4.5241 ...   50.4759  mm)

(Spindle Speed: 2500 RPM)
G21
G90
G94



G01 F75.00
G00 Z1.0000

M03 S2500
G00 X5.3676 Y5.0033
G01 F25.00
G01 Z-0.1000
G01 F75.00
G01 X5.3659 Y5.0360
G01 X5.3606 Y5.0717
G01 X5.3518 Y5.1067
G01 X5.3397 Y5.1407
G01 X5.3242 Y5.1733
G01 X5.3057 Y5.2043
G01 X5.2842 Y5.2332
G01 X5.2600 Y5.2600
G01 X5.2332 Y5.2842
G01 X5.2043 Y5.3057
G01 X5.1733 Y5.3242
G01 X5.1407 Y5.3397
G01 X5.1067 Y5.3518
G01 X5.0717 Y5.3606
G01 X5.0360 Y5.3659
G01 X5.0000 Y5.3676
G01 X4.9640 Y5.3659
G01 X4.9283 Y5.3606
G01 X4.8933 Y5.3518
G01 X4.8593 Y5.3397
G01 X4.8267 Y5.3242
G01 X4.7957 Y5.3057
G01 X4.7668 Y5.2842
G01 X4.7400 Y5.2600
G01 X4.7158 Y5.2332
G01 X4.6943 Y5.2043
G01 X4.6758 Y5.1733
G01 X4.6603 Y5.1407
G01 X4.6482 Y5.1067
G01 X4.6394 Y5.0717
G01 X4.6341 Y5.0360
G01 X4.6324 Y5.0000
G01 X4.6341 Y4.9640
G01 X4.6394 Y4.9283
G01 X4.6482 Y4.8933
G01 X4.6603 Y4.8593
G01 X4.6758 Y4.8267
G01 X4.6943 Y4.7957
G01 X4.7158 Y4.7668
G01 X4.7400 Y4.7400
G01 X4.7668 Y4.7158
G01 X4.7957 Y4.6943
G01 X4.8267 Y4.6758
G01 X4.8593 Y4.6603
G01 X4.8933 Y4.6482
G01 X4.9283 Y4.6394
G01 X4.9640 Y4.6341
G01 X5.0000 Y4.6324
G01 X5.0360 Y4.6341
G01 X5.0717 Y4.6394
G01 X5.1067 Y4.6482
G01 X5.1407 Y4.6603
G01 X5.1733 Y4.6758
G01 X5.2043 Y4.6943
G01 X5.2332 Y4.7158
G01 X5.2600 Y4.7400
G01 X5.2842 Y4.7668
G01 X5.3057 Y4.7957
G01 X5.3242 Y4.8267
G01 X5.3397 Y4.8593
G01 X5.3518 Y4.8933
G01 X5.3606 Y4.9283
G01 X5.3659 Y4.9640
G01 X5.3676 Y4.9967
G01 X5.3676 Y5.0033
G00 Z1.0000
G00 X5.4216 Y5.0060
G01 F25.00
G01 Z-0.1000
G01 F75.00
G01 X5.4197 Y5.0413
G01 X5.4137 Y5.0823
G01 X5.4036 Y5.1224
G01 X5.3897 Y5.1614
G01 X5.3720 Y5.1988
G01 X5.3507 Y5.2343
G01 X5.3260 Y5.2676
G01 X5.2982 Y5.2982
G01 X5.2676 Y5.3260
G01 X5.2343 Y5.3507
G01 X5.1988 Y5.3720
G01 X5.1614 Y5.3897
G01 X5.1224 Y5.4036
G01 X5.0823 Y5.4137
G01 X5.0413 Y5.4197
G01 X5.0000 Y5.4218
G01 X4.9587 Y5.4197
G01 X4.9177 Y5.4137
G01 X4.8776 Y5.4036
G01 X4.8386 Y5.3897
G01 X4.8012 Y5.3720
G01 X4.7657 Y5.3507
G01 X4.7324 Y5.3260
G01 X4.7018 Y5.2982
G01 X4.6740 Y5.2676
G01 X4.6493 Y5.2343
G01 X4.6280 Y5.1988
G01 X4.6103 Y5.1614
G01 X4.5964 Y5.1224
G01 X4.5863 Y5.0823
G01 X4.5803 Y5.0413
G01 X4.5782 Y5.0000
G01 X4.5803 Y4.9587
G01 X4.5863 Y4.9177
G01 X4.5964 Y4.8776
G01 X4.6103 Y4.8386
G01 X4.6280 Y4.8012
G01 X4.6493 Y4.7657
G01 X4.6740 Y4.7324
G01 X4.7018 Y4.7018
G01 X4.7324 Y4.6740
G01 X4.7657 Y4.6493
G01 X4.8012 Y4.6280
G01 X4.8386 Y4.6103
G01 X4.8776 Y4.5964
G01 X4.9177 Y4.5863
G01 X4.9587 Y4.5803
G01 X5.0000 Y4.5782
G01 X5.0413 Y4.5803
G01 X5.0823 Y4.5863
G01 X5.1224 Y4.5964
G01 X5.1614 Y4.6103
G01 X5.1988 Y4.6280
G01 X5.2343 Y4.6493
G01 X5.2676 Y4.6740
G01 X5.2982 Y4.7018
G01 X5.3260 Y4.7324
G01 X5.3507 Y4.7657
G01 X5.3720 Y4.8012
G01 X5.3897 Y4.8386
G01 X5.4036 Y4.8776
G01 X5.4137 Y4.9177
G01 X5.4197 Y4.9587
G01 X5.4216 Y4.9940
G01 X5.4216 Y5.0060
G00 Z1.0000
G00 X5.4757 Y5.0086
G01 F25.00
G01 Z-0.1000
G01 F75.00
G01 X5.4736 Y5.0466
G01 X5.4667 Y5.0928
G01 X5.4554 Y5.1381
G01 X5.4397 Y5.1821
G01 X5.4197 Y5.2243
G01 X5.3957 Y5.2644
G01 X5.3679 Y5.3019
G01 X5.3365 Y5.3365
G01 X5.3019 Y5.3679
G01 X5.2644 Y5.3957
G01 X5.2243 Y5.4197
G01 X5.1821 Y5.4397
G01 X5.1381 Y5.4554
G01 X5.0928 Y5.4667
G01 X5.0466 Y5.4736
G01 X5.0000 Y5.4759
G01 X4.9534 Y5.4736
G01 X4.9072 Y5.4667
G01 X4.8619 Y5.4554
G01 X4.8179 Y5.4397
G01 X4.7757 Y5.4197
G01 X4.7356 Y5.3957
G01 X4.6981 Y5.3679
G01 X4.6635 Y5.3365
G01 X4.6321 Y5.3019
G01 X4.6043 Y5.2644
G01 X4.5803 Y5.2243
G01 X4.5603 Y5.1821
G01 X4.5446 Y5.1381
G01 X4.5333 Y5.0928
G01 X4.5264 Y5.0466
G01 X4.5241 Y5.0000
G01 X4.5264 Y4.9534
G01 X4.5333 Y4.9072
G01 X4.5446 Y4.8619
G01 X4.5603 Y4.8179
G01 X4.5803 Y4.7757
G01 X4.6043 Y4.7356
G01 X4.6321 Y4.6981
G01 X4.6635 Y4.6635
G01 X4.6981 Y4.6321
G01 X4.7356 Y4.6043
G01 X4.7757 Y4.5803
G01 X4.8179 Y4.5603
G01 X4.8619 Y4.5446
G01 X4.9072 Y4.5333
G01 X4.9534 Y4.5264
G01 X5.0000 Y4.5241
G01 X5.0466 Y4.5264
G01 X5.0928 Y4.5333
G01 X5.1381 Y4.5446
G01 X5.1821 Y4.5603
G01 X5.2243 Y4.5803
G01 X5.2644 Y4.6043
G01 X5.3019 Y4.6321
G01 X5.3365 Y4.6635
G01 X5.3679 Y4.6981
G01 X5.3957 Y4.7356
G01 X5.4197 Y4.7757
G01 X5.4397 Y4.8179
G01 X5.4554 Y4.8619
G01 X5.4667 Y4.9072
G01 X5.4736 Y4.9534
G01 X5.4757 Y4.9914
G01 X5.4757 Y5.0086
G00 Z1.0000
G00 X6.4650 Y11.2834
G01 F25.00
G01 Z-0.1000
G01 F75.00
G01 X11.5493 Y11.2834
G01 X11.7093 Y11.2914
G01 X11.8721 Y11.3156
G01 X12.0317 Y11.3556
G01 X12.1508 Y11.3980
G01 X15.0300 Y8.5189
G01 X15.0761 Y8.4773
G01 X15.1223 Y8.4428
G01 X15.1330 Y8.4355
G01 X15.1788 Y8.4080
G01 X15.1940 Y8.3998
G01 X15.2463 Y8.3753
G01 X15.3087 Y8.3530
G01 X15.3731 Y8.3369
G01 X15.4344 Y8.3276
G01 X15.4473 Y8.3265
G01 X15.5050 Y8.3239
G01 X31.0800 Y8.3239
G01 X31.1377 Y8.3265
G01 X31.1548 Y8.3282
G01 X31.2077 Y8.3361
G01 X31.2203 Y8.3387
G01 X31.2680 Y8.3507
G01 X31.2845 Y8.3557
G01 X31.3347 Y8.3737
G01 X31.3466 Y8.3788
G01 X31.3987 Y8.4037
G01 X31.4556 Y8.4378
G01 X31.5089 Y8.4773
G01 X31.5550 Y8.5189
G01 X34.4342 Y11.3980
G01 X34.5533 Y11.3556
G01 X34.7129 Y11.3156
G01 X34.8757 Y11.2914
G01 X35.0357 Y11.2834
G01 X40.1200 Y11.2834
G01 X40.2843 Y11.2914
G01 X40.4386 Y11.3141
G01 X40.4513 Y11.3165
G01 X40.6067 Y11.3556
G01 X40.7616 Y11.4110
G01 X40.9104 Y11.4813
G01 X41.0442 Y11.5613
G01 X41.0585 Y11.5709
G01 X41.1836 Y11.6639
G01 X41.2993 Y11.7685
G01 X41.3115 Y11.7807
G01 X41.4104 Y11.8898
G01 X41.4214 Y11.9032
G01 X41.5141 Y12.0285
G01 X41.5987 Y12.1696
G01 X41.6690 Y12.3184
G01 X41.7244 Y12.4733
G01 X41.7644 Y12.6329
G01 X41.7886 Y12.7957
G01 X41.7966 Y12.9600
G01 X41.7892 Y13.1157
G01 X41.7875 Y13.1329
G01 X41.7659 Y13.2786
G01 X41.7625 Y13.2955
G01 X41.7244 Y13.4467
G01 X41.6690 Y13.6016
G01 X41.5987 Y13.7504
G01 X41.5187 Y13.8842
G01 X41.5091 Y13.8985
G01 X41.4214 Y14.0168
G01 X41.4104 Y14.0302
G01 X41.3056 Y14.1456
G01 X41.1836 Y14.2561
G01 X41.0515 Y14.3541
G01 X40.9179 Y14.4344
G01 X40.9027 Y14.4425
G01 X40.7695 Y14.5055
G01 X40.7536 Y14.5121
G01 X40.6067 Y14.5644
G01 X40.4513 Y14.6035
G01 X40.4386 Y14.6059
G01 X40.2843 Y14.6286
G01 X40.1200 Y14.6366
G01 X35.0400 Y14.6366
G01 X34.8843 Y14.6292
G01 X34.8714 Y14.6281
G01 X34.7129 Y14.6044
G01 X34.5533 Y14.5644
G01 X34.3984 Y14.5090
G01 X34.2573 Y14.4425
G01 X34.2459 Y14.4366
G01 X34.1085 Y14.3541
G01 X33.9832 Y14.2614
G01 X33.9730 Y14.2533
G01 X33.8607 Y14.1515
G01 X33.8514 Y14.1425
G01 X33.7467 Y14.0270
G01 X33.7386 Y14.0168
G01 X33.7157 Y13.9859
G01 X33.0400 Y13.9859
G01 X33.0271 Y13.9854
G01 X33.0099 Y13.9833
G01 X32.9931 Y13.9795
G01 X32.9767 Y13.9741
G01 X32.9609 Y13.9671
G01 X32.9533 Y13.9630
G01 X32.9423 Y13.9562
G01 X32.9284 Y13.9460
G01 X32.9156 Y13.9344
G01 X32.9040 Y13.9216
G01 X32.8962 Y13.9113
G01 X32.8870 Y13.8967
G01 X32.8810 Y13.8852
G01 X32.8744 Y13.8693
G01 X32.8705 Y13.8569
G01 X32.8667 Y13.8401
G01 X32.8650 Y13.8272
G01 X32.8642 Y13.8143
G01 X32.8641 Y12.1100
G01 X32.8646 Y12.0971
G01 X32.8667 Y12.0799
G01 X32.8705 Y12.0631
G01 X32.8759 Y12.0467
G01 X32.8829 Y12.0309
G01 X32.8914 Y12.0159
G01 X32.9013 Y12.0018
G01 X32.9126 Y11.9887
G01 X32.9251 Y11.9768
G01 X32.9387 Y11.9662
G01 X32.9533 Y11.9570
G01 X32.9687 Y11.9492
G01 X32.9848 Y11.9430
G01 X33.0015 Y11.9384
G01 X33.0185 Y11.9354
G01 X33.0357 Y11.9342
G01 X33.0579 Y11.9341
G01 X30.7999 Y9.6761
G01 X15.7851 Y9.6761
G01 X13.5271 Y11.9341
G01 X13.5493 Y11.9342
G01 X13.5665 Y11.9354
G01 X13.5835 Y11.9384
G01 X13.6002 Y11.9430
G01 X13.6163 Y11.9492
G01 X13.6317 Y11.9570
G01 X13.6463 Y11.9662
G01 X13.6599 Y11.9768
G01 X13.6724 Y11.9887
G01 X13.6837 Y12.0018
G01 X13.6936 Y12.0159
G01 X13.7021 Y12.0309
G01 X13.7091 Y12.0467
G01 X13.7133 Y12.0589
G01 X13.7156 Y12.0673
G01 X13.7190 Y12.0842
G01 X13.7207 Y12.1014
G01 X13.7207 Y13.8186
G01 X13.7196 Y13.8315
G01 X13.7183 Y13.8401
G01 X13.7156 Y13.8527
G01 X13.7120 Y13.8652
G01 X13.7091 Y13.8733
G01 X13.7040 Y13.8852
G01 X13.6980 Y13.8967
G01 X13.6936 Y13.9041
G01 X13.6863 Y13.9148
G01 X13.6810 Y13.9216
G01 X13.6724 Y13.9313
G01 X13.6663 Y13.9374
G01 X13.6566 Y13.9460
G01 X13.6498 Y13.9513
G01 X13.6391 Y13.9586
G01 X13.6279 Y13.9651
G01 X13.6202 Y13.9690
G01 X13.6083 Y13.9741
G01 X13.5919 Y13.9795
G01 X13.5835 Y13.9816
G01 X13.5708 Y13.9840
G01 X13.5622 Y13.9850
G01 X13.5493 Y13.9858
G01 X12.8693 Y13.9859
G01 X12.8464 Y14.0168
G01 X12.8383 Y14.0270
G01 X12.7336 Y14.1425
G01 X12.7243 Y14.1515
G01 X12.6120 Y14.2533
G01 X12.6018 Y14.2614
G01 X12.4765 Y14.3541
G01 X12.3391 Y14.4366
G01 X12.3277 Y14.4425
G01 X12.1866 Y14.5090
G01 X12.0317 Y14.5644
G01 X11.8721 Y14.6044
G01 X11.7093 Y14.6286
G01 X11.5450 Y14.6366
G01 X6.4650 Y14.6366
G01 X6.3093 Y14.6292
G01 X6.2921 Y14.6275
G01 X6.1379 Y14.6044
G01 X5.9783 Y14.5644
G01 X5.8234 Y14.5090
G01 X5.6746 Y14.4387
G01 X5.5335 Y14.3541
G01 X5.4014 Y14.2561
G01 X5.2794 Y14.1456
G01 X5.1746 Y14.0302
G01 X5.1636 Y14.0168
G01 X5.0709 Y13.8915
G01 X4.9863 Y13.7504
G01 X4.9160 Y13.6016
G01 X4.8633 Y13.4549
G01 X4.8583 Y13.4384
G01 X4.8206 Y13.2871
G01 X4.7975 Y13.1329
G01 X4.7958 Y13.1157
G01 X4.7886 Y12.9686
G01 X4.7886 Y12.9514
G01 X4.7964 Y12.7957
G01 X4.8206 Y12.6329
G01 X4.8606 Y12.4733
G01 X4.9160 Y12.3184
G01 X4.9863 Y12.1696
G01 X5.0709 Y12.0285
G01 X5.1689 Y11.8964
G01 X5.2794 Y11.7744
G01 X5.4014 Y11.6639
G01 X5.5335 Y11.5659
G01 X5.6746 Y11.4813
G01 X5.8234 Y11.4110
G01 X5.9783 Y11.3556
G01 X6.1379 Y11.3156
G01 X6.3007 Y11.2914
G01 X6.4650 Y11.2834
G00 Z1.0000
G00 X6.4650 Y11.3375
G01 F25.00
G01 Z-0.1000
G01 F75.00
G01 X11.5480 Y11.3375
G01 X11.7040 Y11.3453
G01 X11.8615 Y11.3687
G01 X12.0160 Y11.4073
G01 X12.1648 Y11.4605
G01 X15.0673 Y8.5581
G01 X15.1104 Y8.5192
G01 X15.1545 Y8.4863
G01 X15.1645 Y8.4796
G01 X15.2066 Y8.4544
G01 X15.2171 Y8.4487
G01 X15.2670 Y8.4253
G01 X15.3244 Y8.4048
G01 X15.3836 Y8.3899
G01 X15.4411 Y8.3813
G01 X15.4500 Y8.3805
G01 X15.5050 Y8.3780
G01 X31.0860 Y8.3781
G01 X31.1410 Y8.3810
G01 X31.2014 Y8.3899
G01 X31.2606 Y8.4048
G01 X31.3180 Y8.4253
G01 X31.3732 Y8.4514
G01 X31.4256 Y8.4828
G01 X31.4746 Y8.5192
G01 X31.5155 Y8.5560
G01 X34.4202 Y11.4605
G01 X34.5690 Y11.4073
G01 X34.7235 Y11.3687
G01 X34.8810 Y11.3453
G01 X35.0370 Y11.3375
G01 X40.1200 Y11.3375
G01 X40.2790 Y11.3453
G01 X40.4365 Y11.3687
G01 X40.5910 Y11.4073
G01 X40.7409 Y11.4610
G01 X40.8849 Y11.5291
G01 X41.0164 Y11.6077
G01 X41.0263 Y11.6144
G01 X41.1446 Y11.7021
G01 X41.1538 Y11.7097
G01 X41.2673 Y11.8127
G01 X41.3742 Y11.9307
G01 X41.4691 Y12.0586
G01 X41.5509 Y12.1951
G01 X41.6190 Y12.3391
G01 X41.6708 Y12.4833
G01 X41.6742 Y12.4948
G01 X41.7100 Y12.6376
G01 X41.7124 Y12.6494
G01 X41.7347 Y12.8010
G01 X41.7424 Y12.9540
G01 X41.7424 Y12.9660
G01 X41.7347 Y13.1190
G01 X41.7113 Y13.2765
G01 X41.6727 Y13.4310
G01 X41.6212 Y13.5753
G01 X41.6166 Y13.5864
G01 X41.5536 Y13.7195
G01 X41.5480 Y13.7301
G01 X41.4691 Y13.8614
G01 X41.3742 Y13.9893
G01 X41.2673 Y14.1073
G01 X41.1538 Y14.2103
G01 X41.1446 Y14.2179
G01 X41.0263 Y14.3056
G01 X41.0164 Y14.3123
G01 X40.8849 Y14.3909
G01 X40.7409 Y14.4590
G01 X40.5910 Y14.5127
G01 X40.4395 Y14.5507
G01 X40.4306 Y14.5524
G01 X40.2790 Y14.5747
G01 X40.1200 Y14.5825
G01 X35.0400 Y14.5825
G01 X34.8869 Y14.5751
G01 X34.8780 Y14.5744
G01 X34.7235 Y14.5513
G01 X34.5690 Y14.5127
G01 X34.4191 Y14.4590
G01 X34.2805 Y14.3936
G01 X34.2725 Y14.3895
G01 X34.1386 Y14.3091
G01 X34.0154 Y14.2179
G01 X34.0084 Y14.2123
G01 X33.8970 Y14.1114
G01 X33.8906 Y14.1052
G01 X33.7877 Y13.9916
G01 X33.7821 Y13.9846
G01 X33.7429 Y13.9318
G01 X33.0340 Y13.9316
G01 X33.0221 Y13.9305
G01 X33.0104 Y13.9281
G01 X32.9962 Y13.9236
G01 X32.9853 Y13.9188
G01 X32.9749 Y13.9129
G01 X32.9651 Y13.9060
G01 X32.9560 Y13.8982
G01 X32.9459 Y13.8872
G01 X32.9388 Y13.8777
G01 X32.9340 Y13.8700
G01 X32.9299 Y13.8621
G01 X32.9264 Y13.8538
G01 X32.9235 Y13.8453
G01 X32.9206 Y13.8338
G01 X32.9188 Y13.8219
G01 X32.9183 Y13.8130
G01 X32.9182 Y12.1100
G01 X32.9191 Y12.0951
G01 X32.9206 Y12.0862
G01 X32.9226 Y12.0775
G01 X32.9275 Y12.0634
G01 X32.9340 Y12.0500
G01 X32.9388 Y12.0423
G01 X32.9440 Y12.0351
G01 X32.9539 Y12.0239
G01 X32.9605 Y12.0178
G01 X32.9675 Y12.0122
G01 X32.9749 Y12.0071
G01 X32.9826 Y12.0026
G01 X32.9962 Y11.9964
G01 X33.0047 Y11.9935
G01 X33.0162 Y11.9906
G01 X33.0251 Y11.9891
G01 X33.0340 Y11.9884
G01 X33.1886 Y11.9882
G01 X30.8224 Y9.6220
G01 X15.7626 Y9.6220
G01 X13.3964 Y11.9882
G01 X13.5510 Y11.9884
G01 X13.5629 Y11.9895
G01 X13.5717 Y11.9912
G01 X13.5803 Y11.9935
G01 X13.5916 Y11.9975
G01 X13.6050 Y12.0040
G01 X13.6127 Y12.0088
G01 X13.6199 Y12.0140
G01 X13.6311 Y12.0239
G01 X13.6372 Y12.0305
G01 X13.6428 Y12.0375
G01 X13.6479 Y12.0449
G01 X13.6524 Y12.0526
G01 X13.6586 Y12.0662
G01 X13.6631 Y12.0804
G01 X13.6650 Y12.0892
G01 X13.6662 Y12.0981
G01 X13.6668 Y12.1100
G01 X13.6667 Y13.8130
G01 X13.6655 Y13.8279
G01 X13.6624 Y13.8425
G01 X13.6597 Y13.8510
G01 X13.6563 Y13.8593
G01 X13.6494 Y13.8726
G01 X13.6410 Y13.8849
G01 X13.6352 Y13.8918
G01 X13.6290 Y13.8982
G01 X13.6175 Y13.9078
G01 X13.6101 Y13.9129
G01 X13.6024 Y13.9174
G01 X13.5888 Y13.9236
G01 X13.5775 Y13.9274
G01 X13.5629 Y13.9305
G01 X13.5480 Y13.9317
G01 X12.8421 Y13.9318
G01 X12.8029 Y13.9846
G01 X12.7973 Y13.9916
G01 X12.6944 Y14.1052
G01 X12.6880 Y14.1114
G01 X12.5766 Y14.2123
G01 X12.5696 Y14.2179
G01 X12.4464 Y14.3091
G01 X12.3125 Y14.3895
G01 X12.3045 Y14.3936
G01 X12.1659 Y14.4590
G01 X12.0160 Y14.5127
G01 X11.8615 Y14.5513
G01 X11.7040 Y14.5747
G01 X11.5450 Y14.5825
G01 X6.4590 Y14.5824
G01 X6.3060 Y14.5747
G01 X6.1485 Y14.5513
G01 X5.9940 Y14.5127
G01 X5.8441 Y14.4590
G01 X5.7001 Y14.3909
G01 X5.5636 Y14.3091
G01 X5.4357 Y14.2142
G01 X5.3177 Y14.1073
G01 X5.2108 Y13.9893
G01 X5.1159 Y13.8614
G01 X5.0341 Y13.7249
G01 X4.9660 Y13.5809
G01 X4.9123 Y13.4310
G01 X4.8737 Y13.2765
G01 X4.8503 Y13.1190
G01 X4.8425 Y12.9600
G01 X4.8503 Y12.8010
G01 X4.8737 Y12.6435
G01 X4.9123 Y12.4890
G01 X4.9660 Y12.3391
G01 X5.0341 Y12.1951
G01 X5.1159 Y12.0586
G01 X5.2108 Y11.9307
G01 X5.3177 Y11.8127
G01 X5.4357 Y11.7058
G01 X5.5636 Y11.6109
G01 X5.7001 Y11.5291
G01 X5.8441 Y11.4610
G01 X5.9940 Y11.4073
G01 X6.1485 Y11.3687
G01 X6.3060 Y11.3453
G01 X6.4650 Y11.3375
G00 Z1.0000
G00 X6.4650 Y11.3916
G01 F25.00
G01 Z-0.1000
G01 F75.00
G01 X11.5467 Y11.3916
G01 X11.6987 Y11.3992
G01 X11.8526 Y11.4221
G01 X12.0019 Y11.4596
G01 X12.1437 Y11.5104
G01 X12.1763 Y11.5256
G01 X15.1046 Y8.5973
G01 X15.1447 Y8.5610
G01 X15.1868 Y8.5297
G01 X15.1923 Y8.5260
G01 X15.2344 Y8.5008
G01 X15.2403 Y8.4977
G01 X15.2877 Y8.4753
G01 X15.3401 Y8.4566
G01 X15.3942 Y8.4430
G01 X15.4477 Y8.4350
G01 X15.5050 Y8.4321
G01 X31.0833 Y8.4322
G01 X31.1357 Y8.4348
G01 X31.1908 Y8.4430
G01 X31.2449 Y8.4566
G01 X31.2973 Y8.4753
G01 X31.3477 Y8.4992
G01 X31.3955 Y8.5278
G01 X31.4403 Y8.5610
G01 X31.4804 Y8.5973
G01 X34.4087 Y11.5256
G01 X34.4413 Y11.5104
G01 X34.5831 Y11.4596
G01 X34.7324 Y11.4221
G01 X34.8863 Y11.3992
G01 X35.0383 Y11.3916
G01 X40.1200 Y11.3916
G01 X40.2737 Y11.3992
G01 X40.4260 Y11.4217
G01 X40.5753 Y11.4591
G01 X40.7202 Y11.5110
G01 X40.8593 Y11.5768
G01 X40.9886 Y11.6541
G01 X40.9941 Y11.6578
G01 X41.1124 Y11.7456
G01 X41.1175 Y11.7498
G01 X41.2290 Y11.8510
G01 X41.3324 Y11.9650
G01 X41.4241 Y12.0886
G01 X41.5032 Y12.2207
G01 X41.5690 Y12.3598
G01 X41.6198 Y12.5016
G01 X41.6218 Y12.5079
G01 X41.6575 Y12.6508
G01 X41.6588 Y12.6573
G01 X41.6808 Y12.8063
G01 X41.6883 Y12.9567
G01 X41.6883 Y12.9633
G01 X41.6808 Y13.1137
G01 X41.6583 Y13.2660
G01 X41.6209 Y13.4153
G01 X41.5702 Y13.5571
G01 X41.5677 Y13.5632
G01 X41.5047 Y13.6964
G01 X41.5016 Y13.7022
G01 X41.4241 Y13.8314
G01 X41.3324 Y13.9550
G01 X41.2290 Y14.0690
G01 X41.1175 Y14.1702
G01 X41.1124 Y14.1744
